X:287
T:Mrs Charles Menteath of Clofa Burn's Jig
C:Robert Riddel, c.1790
S:Rosa Michaelson, Edinburgh
O:Scotland
Z:Nigel Gatherer <gatherer@argonet.co.uk>
M:9/8
L:1/8
K:Em
B,|B,2 E EFG F2 E|D2 d dd/e/f/g/ afd|efg fga gab|B2 e ef^d e2:|]
g/a/|bge bge bge|afd f/g/af afd|bge bge bge|B2 e ef^d e2 g/a/|
bge bge bge|afd f/g/af afd|efg fga gab|B2 e ef^d e2|]
